X:186
T:Cornish Express
C:
R:Reel
M:4/4
K:G
d2||g2fe dcBA|G2B2D4|DEFGA2B2|c4>e2|a2gf edcB|A2c2F3E|DEFG A2_B2|B4>d2|
g2fe dcBA|G2B2D4|GABcd2G2|e6g2|a2gf edcB|A2c2F3E|DEFG A2B2|G4d2||
||g3fg2d2|g3fg2d2|g2fga2g2|e4g2|a4g2|a4g2|a2gf e2f2 |g2d2e2f2|
g3fg2d2|g3fg2d2|g2fga2g2|e6g2|a2gf edcB|A2c2F3E|DEFGA2B2|G6d2||
